icons/bell-17.svg

<svg width="16" height="17" viewBox="0 0 16 17" fill="none" xmlns="http://www.w3.org/2000/svg">
<path fill-rule="evenodd" clip-rule="evenodd" d="M8 2.20044C5.92893 2.20044 4.25 3.87937 4.25 5.95044V8.16085C4.25 8.19787 4.23904 8.23406 4.21851 8.26486L2.94116 10.1809C2.81651 10.3679 2.75 10.5875 2.75 10.8122C2.75 11.4409 3.25959 11.9504 3.88819 11.9504H12.1118C12.7404 11.9504 13.25 11.4409 13.25 10.8122C13.25 10.5875 13.1835 10.3679 13.0588 10.1809L11.7815 8.26486C11.761 8.23406 11.75 8.19787 11.75 8.16085V5.95044C11.75 3.87937 10.0711 2.20044 8 2.20044ZM5.375 5.95044C5.375 4.50069 6.55025 3.32544 8 3.32544C9.44975 3.32544 10.625 4.50069 10.625 5.95044V8.16085C10.625 8.41998 10.7017 8.6733 10.8454 8.8889L12.1227 10.8049C12.1242 10.8071 12.125 10.8096 12.125 10.8122C12.125 10.8139 12.1246 10.8159 12.1246 10.8159L12.1242 10.8172C12.1242 10.8172 12.1227 10.82 12.1211 10.8215C12.1195 10.8232 12.1168 10.8246 12.1168 10.8246C12.1168 10.8246 12.1147 10.8254 12.1118 10.8254H3.88819C3.88533 10.8254 3.88323 10.8246 3.88323 10.8246C3.88323 10.8246 3.88047 10.8232 3.87886 10.8215C3.87726 10.82 3.8758 10.8172 3.8758 10.8172C3.8758 10.8172 3.875 10.8151 3.875 10.8122C3.875 10.8096 3.87577 10.8071 3.87721 10.8049L5.15457 8.8889C5.2983 8.6733 5.375 8.41998 5.375 8.16085V5.95044Z" fill="#272431"/>
<path d="M9.48844 12.8876C9.39633 13.6277 8.76505 14.2004 7.99999 14.2004C7.23493 14.2004 6.60366 13.6277 6.51155 12.8876C6.49876 12.7848 6.58394 12.7004 6.68749 12.7004H9.31249C9.41605 12.7004 9.50119 12.7848 9.48844 12.8876Z" fill="#272431"/>
</svg>

<svg xmlns="http://www.w3.org/2000/svg" width="16" height="17" viewBox="0 0 16 17"><path fill-rule="evenodd" d="M8 2.2a3.75 3.75 0 00-3.75 3.75v2.21a.188.188 0 01-.031.105L2.94 10.18a1.138 1.138 0 00.947 1.77h8.224a1.138 1.138 0 00.947-1.77l-1.277-1.916a.188.188 0 01-.032-.104V5.95A3.75 3.75 0 008 2.2zM5.375 5.95a2.625 2.625 0 115.25 0v2.21c0 .26.077.513.22.729l1.278 1.916a.013.013 0 01.002.007v.005l-.004.005a.019.019 0 01-.004.003H3.883l-.004-.003-.003-.005-.001-.005c0-.002 0-.005.002-.007l1.278-1.916a1.32 1.32 0 00.22-.728V5.95z"/><path d="M9.488 12.888a1.5 1.5 0 01-2.976 0c-.013-.103.072-.188.175-.188h2.625c.104 0 .19.085.176.188z"/></svg>
